X:1
T:Waiting at the Door
T:Waiting at the Door
T:Tullius Clinton O’Kane
T:Katherine M. Reasoner, 1881
T:Public Domain Courtesy of the Cyber Hymnal™
T:Public Domain Courtesy of the Cyber Hymnal™
C:Tullius Clinton O’Kane
Z:Public Domain
Z:Courtesy of the Cyber Hymnal™
%%score ( 1 2 ) ( 3 4 )
L:1/8
Q:1/4=107
M:4/4
K:Bb
V:1 treble 
V:2 treble 
V:3 bass 
V:4 bass 
V:1
 [DF]>[^C=E] | [DF]2 [DF]2 [DB]3 [FA] | [EG] [EB]3 z2 [EA][EG] | F2 [FB]2 [Fc]3 [Fd] | %4
w: 1.~I am|wait- ing for the|Mas- ter, Who will|bid me rise and|
w: 2.~Many a|wear- y path I’ve|tra- veled, In the|dark- est storm and|
w: 3.~Ma- ny|friends that tra- veled|with me, Reached that|por- tal long a-|
w: 4.~Yes, their|pil- grim- age was|short- er, And their|tri- umph soon- er|
 [Fc]6 [DF]>[^C=E] | [DF]2 [DF]2 [DB]3 [FA] | [EG] [EB]3 z2 [EA][EG] | F2 [FB]2 [Fd]3 [Ec] | %8
w: come To the|glo- ry of His|pre- sence, To the|glad- ness of His|
w: strife, Bear- ing|many a heav- y|bur- den, Oft- en|strug- gling for my|
w: go; One by|one they left me|bat- tling With the|dark and craft- y|
w: won; Oh, how|lov- ing- ly they’ll|greet me When the|toils of life are|
 [DB]6 ||"^Refrain" [FA][FB] | [Ec]4- [Ec][Fc][FB][Fc] | [Fd] [DB]3 z2 [FA][FB] | %12
w: home.||||
w: life.|They are|watch- * ing at the|por- tal, They are|
w: foe.||||
w: done.||||
 [Ec]4- [Ec][Fc][FB][Fc] | [Fd]6 [DB][FG] | [EG]4- [EG][FA][GB][EG] | [EG] [DF]3 z2 F[FB] | %16
w: ||||
w: wait- * ing at the|door; Wait- ing|on- * ly for my|com- ing, All the|
w: ||||
w: ||||
 [FA]4- [FA][FA][FG][FA] | [FB]6 |] %18
w: ||
w: loved * ones gone be-|fore.|
w: ||
w: ||
V:2
 x2 | x8 | x8 | F2 x6 | x8 | x8 | x8 | F2 x6 | x6 || x2 | x8 | x8 | x8 | x8 | x8 | x6 F x | x8 | %17
 x6 |] %18
V:3
 [B,,B,]>[B,,B,] | [B,,B,]2 [B,,B,]2 [B,,B,]3 [D,B,] | [E,B,] [E,G,]3 z2 [E,C][E,B,] | %3
w: ~ ~|~ ~ ~ ~|~ ~ ~ ~|
 [D,B,]2 [D,B,]2 [C,A,]3 [B,,B,] | [F,A,]6 [B,,B,]>[B,,B,] | [B,,B,]2 [B,,B,]2 [B,,B,]3 [D,B,] | %6
w: ~ ~ ~ ~|~ ~ ~|~ ~ ~ ~|
 [E,B,] [E,G,]3 z2 [E,C][E,B,] | [D,B,]2 [B,,D]2 [F,B,]3 [F,,A,] | [B,,B,]6 || F,[F,G,] | %10
w: ~ ~ ~ ~|~ ~ ~ ~|~|They are|
 [F,A,][F,A,][F,A,][F,A,] [F,A,][E,A,][D,B,][C,A,] | [B,,B,] [B,,F,]3 z2 F,[F,G,] | %12
w: watch- ing, they are watch- ing at the|por- tal, They are|
 [F,A,][F,A,][F,A,][F,A,] [F,A,][E,A,][D,B,][F,A,] | B,6 [B,,B,][D,B,] | %14
w: wait- ing, they are wait- ing at the|door; Wait- ing|
 [E,B,][E,B,][E,B,][E,B,] [E,B,][E,B,][E,B,][E,B,] | [B,,B,] [B,,B,]3 z2 [B,,D][D,B,] | %16
w: on- ly wait- ing on- ly for me|com- ing, All the|
 [F,C][F,C][F,C][F,C] [F,C][F,C][F,B,][F,C] | [B,,D]6 |] %18
w: loved ones, all the loved ones gone be-|fore.|
V:4
 x2 | x8 | x8 | x8 | x8 | x8 | x8 | x8 | x6 || F, x | x8 | x6 F, x | x8 | B,6 x2 | x8 | x8 | x8 | %17
 x6 |] %18

